!!!COM: Mozart, Wolfgang Amadeus
!!!OPR: Quartet in B-flat Major
!!!OTL:
!!!OMV: 2
!!!SCT: K 458
!!!SCA: Chronologisch-thematisches Verzeichnis sämtlicher Tonwerke Wolfgang Amade Mozarts (L. von Köchel; 1862, 2/1905, 3/1937, 1947)
!!!YOR: Breitkopf & Härtel Edition
!!!EED: Frances Bennion
!!!ENC: Frances Bennion
!!!CDT: 1756/1/27/-1791/12/5/
!!!OCY: Österreich
!!!YEC: Copyright (c) 1994, 2000 Center for Computer Assisted Research in the Humanities
!!!YEM: Rights to all derivative editions reserved.
!!!YEM: Refer to licensing agreement for further details.
!!!YEN: United States of America
**kern	**kern	**kern	**kern
*k[b-e-]	*k[b-e-]	*k[b-e-]	*k[b-e-]
*B-:	*B-:	*B-:	*B-:
*clefG	*clefG	*clefF	*clefC
*M3/4	*M3/4	*M3/4	*M3/4
*tb32	*tb32	*tb32	*tb32
=1	=1	=1	=1
2b-	2d	[2.f	4r
.	.	.	4BB-
4a	4e-	.	4C
=2	=2	=2	=2
4b-	4f	4f]	4D
8.cc	4e-	4A	4C
32b-	.	.	.
32cc	.	.	.
8.dd	4d	4B-	4BB-
16b-	.	.	.
=3	=3	=3	=3
2f	2c	4c	4AA
.	.	4A	4FF
8.gg	8.ee-	4c	4A
16ff	16dd	.	.
=4	=4	=4	=4
2ff	2dd	4d	4B-
.	.	4f	4d
8.ee-	8.cc	4A	4F#
16dd	16b-	.	.
=5	=5	=5	=5
2dd	2b-	4B-	4G
.	.	4d	4B-
8.cc	4a-	4F	4D
16b-	.	.	.
=6	=6	=6	=6
4.b-	4g	4G	4E-
.	4b-	4e-	4C
16cc	.	.	.
16dd	.	.	.
8ee-	4a	4c	4F
16dd	.	.	.
16cc	.	.	.
=7	=7	=7	=7
4..b-	2b-	[2f	4D
.	.	.	4F
16dd	.	.	.
8.ee-	8.cc	8.f]	4F
16cc	16a	16e-	.
=8	=8	=8	=8
4b-	4b-	4d	4B-
2r	2r	2r	4F
.	.	.	4BB-
=9	=9	=9	=9
2ddd	2b-	[2.d	4r
.	.	.	4G
4ff#	4cc	.	4A
=10	=10	=10	=10
4gg	4dd	4d]	4B-
8.aa	4cc	4f#	4A
32gg	.	.	.
32aa	.	.	.
8.bb-	4b-	4g	4G
16gg	.	.	.
=11	=11	=11	=11
8ddd	4r	4r	4r
8ccc	.	.	.
8bb-	8g	[2c	4E
8aa	8f	.	.
8gg	8e	.	4B-
8ee	8g	.	.
=12	=12	=12	=12
8gg	2.cc	4c]	4A
8ff	.	.	.
8aa	.	8f	4G
8gg	.	8e	.
8bb-	.	8g	4F
8aa	.	8f	.
=13	=13	=13	=13
8bb-	[2.b-	[2.g	4r
8dd	.	.	.
8bb-	.	.	4G
8dd	.	.	.
8bb-	.	.	4F
8dd-	.	.	.
=14	=14	=14	=14
8cc	8b-]	8g]	2E
8bb-	8g	8e	.
8cc	8b-	8g	.
8bb-	8g	8e	.
8cc	8a	4c	4F
8aa	8f	.	.
=15	=15	=15	=15
8b-	4dd	4b-	4B-
8gg	.	.	.
8a	4cc	4a	4c
8ff	.	.	.
8g	4b-	4g	4C
8ee	.	.	.
=16	=16	=16	=16
[2.ff	4a	4f	4F
.	4r	4r	4FF
.	8.dd	8.b	4r
.	16ee-	16cc	.
=17	=17	=17	=17
2.ff_	2ee-	2cc	4r
.	.	.	4A
.	8.dd	4b-	4B-
.	16dd-	.	.
=18	=18	=18	=18
2.ff_	2cc	2a	4F
.	.	.	4FF
.	8.f	8.d	4r
.	16e	16c#	.
=19	=19	=19	=19
2.ff_	2e-	2c	4r
.	.	.	4AA
.	8.d	4B-	4BB-
.	16d-	.	.
=20	=20	=20	=20
4.ff]	4c	4A	4FF
.	2r	2r	4F
8ee	.	.	.
8ee-	.	.	4r
8cc	.	.	.
=21	=21	=21	=21
2b-	2d	[2.F	4r
.	.	.	4BB-
4a	4e-	.	4C
=22	=22	=22	=22
4b-	4f	4F]	4D
8.cc	4e-	4A	4C
32b-	.	.	.
32cc	.	.	.
8.dd	4d	4B-	4BB-
16b-	.	.	.
=23	=23	=23	=23
2f	2c	4c	4AA
.	.	4A	4FF
8.gg	8.ee-	4c	4A
16ff	16dd	.	.
=24	=24	=24	=24
2ff	2dd	4d	4B-
.	.	4f	4d
8.ee-	8.cc	4A	4F#
16dd	16b-	.	.
=25	=25	=25	=25
2dd	2b-	4B-	4G
.	.	4d	4B-
8.cc	4a-	4f	4D
16b-	.	.	.
=26	=26	=26	=26
4.b-	4g	4B-	4E-
.	4f	4d	4F
16cc	.	.	.
16dd	.	.	.
8ee-	4A	4c	4F#
16dd	.	.	.
16cc	.	.	.
=27	=27	=27	=27
4..b-	4d-	4e	4G
.	8.d	4..f	4F
16dd	16B-	.	.
8.ee-	8.c	.	4FF
16cc	16A	16e-	.
=28	=28	=28	=28
4b-	4B-	4d	4BB-
2r	2r	2r	4F
.	.	.	4B-
=29	=29	=29	=29
4ff	8d	8B-	4BB-
.	8B-	8F	.
8.dd	8d	8B-	2r
.	8B-	8F	.
16ee-	.	.	.
4ff	8d	8B-	.
.	8B-	8F	.
=30	=30	=30	=30
4ff	8f	8d	4BB-
.	8d	8F	.
8.gg	8e-	8c	2r
.	8c	8F	.
16aa	.	.	.
4bb-	8d	8B-	.
.	8B-	8F	.
=31	=31	=31	=31
4cc	8c	8B-	2E-
.	8B-	8G	.
4cc	8c	8B-	.
.	8B-	8G	.
4cc	8c	8B-	4E
.	8B-	8G	.
=32	=32	=32	=32
4.cc	8c	8B-	4F
.	8B-	8F	.
.	8c	8A	4FF
16dd	8A	8F	.
16ee-	.	.	.
4dd	8d	8B-	4BB-
.	8B-	8F	.
=33	=33	=33	=33
4ff	8dd	8f	2B-
.	8f	8d	.
8.dd	8dd	8f	.
.	8f	8B-	.
16ee	.	.	.
4ff#	8cc	8d	4A
.	8d	8c	.
=34	=34	=34	=34
4gg	8b-	8d	4G
.	8d	8B-	.
8.gg	8b-	8d	4F
.	8d	8B-	.
16aa	.	.	.
4bb-	8g	8c	4E
.	8c	8G	.
=35	=35	=35	=35
4cc	8f	8A	4F
.	8A	8F	.
4ccc	8a	8f	2r
.	8f	8A	.
4ccc	8a	8f	.
.	8f	8A	.
=36	=36	=36	=36
4.ccc	8g	8B-	4CC
.	8e	8G	.
.	8g	8B-	4C
16ddd	8e	8G	.
16bb-	.	.	.
4aa	8f	8F	4D
.	8a	8f	.
=37	=37	=37	=37
4gg	8dd	8d	4BB-
.	8b-	8g	.
4..bb-	8dd	8B-	4GG
.	8b-	8g	.
.	8g	8e	4C
.	8e	8B-	.
16gg	.	.	.
=38a	=38a	=38a	=38a
4ff	8f	8A	4FF
.	8g	8e-	.
2r	8f	8d	4r
.	8e-	8c	.
.	8d	8B-	4r
.	8c	8A	.
=38b	=38b	=38b	=38b
4ff	8f	8A	4FF
.	8f	8d	.
4r	8a-	8f	4r
.	8g	8e-	.
4r	8f	8d	4r
.	8e-	8c	.
=39	=39	=39	=39
4.ff	8d	8B	2GG
.	8B	8G	.
.	8d	8B	.
8ee-	8e-	8c	.
8dd	8f	8d	4r
8r	8e-	8c	.
=40	=40	=40	=40
4.ff	8d	8B	2GG
.	8B	8G	.
.	8d	8B	.
8ee-	8e-	8c	.
8dd	8f	8d	4r
8r	8d	8B	.
=41	=41	=41	=41
4.ee-	4b-	2c	4G-
.	4a	.	4F
24dd-	.	.	.
24cc	.	.	.
24b-	.	.	.
8a	4r	4r	4r
8r	.	.	.
=42	=42	=42	=42
4.ee-	2c	4b-	4G-
.	.	4a	4F
24dd-	.	.	.
24cc	.	.	.
24b-	.	.	.
8a	4r	4r	4r
8r	.	.	.
=43	=43	=43	=43
4b-	2.r	2.r	2.r
4dd-	.	.	.
4b-	.	.	.
=44	=44	=44	=44
4f	4f	4F	2.r
2r	4a	4A	.
.	4f	4F	.
=45	=45	=45	=45
4ee	2.B-	2.G	2.C
4ccc	.	.	.
4ee	.	.	.
=46	=46	=46	=46
[2.ff	4c	4A	4E-
.	4d	4B	4D
.	4e-	4c	4AA
=47	=47	=47	=47
4ff]	8d	8B-	4BB-
.	8B-	8F	.
8.dd	8d	8B-	2r
.	8B-	8F	.
16ee-	.	.	.
4ff	8d	8B-	.
.	8B-	8F	.
=48	=48	=48	=48
4ff	8f	8d	4BB-
.	8d	8F	.
8.gg	8e-	8c	2r
.	8c	8F	.
16aa	.	.	.
4bb-	8d	8B-	.
.	8B-	8F	.
=49	=49	=49	=49
4b-	8f	8d	2A-
.	8d	8B-	.
4b-	8f	8d	.
.	8d	8B-	.
4b-	8g	8e-	4G
.	8e-	8B-	.
=50	=50	=50	=50
4.ff 4.b-	8a-	8f	4D
.	8f	8B-	.
.	8f	8d	4BB-
16gg	8d	8B-	.
16aa-	.	.	.
4gg	8g	8e-	4E-
.	8e-	8B-	.
=51	=51	=51	=51
4gg	4r	4r	4r
8ff#	[4g	4d	4B
8ff	.	.	.
8ee	8g]	8c	8c
8r	8r	8r	8r
=52	=52	=52	=52
4ff	4r	4r	4r
8ee	[4f	4c	4A
8ee-	.	.	.
8dd	8f]	8d	8B-
8r	8r	8r	8r
=53	=53	=53	=53
4f	2.r	2.r	2.r
4eee-	.	.	.
4eee-	.	.	.
=54	=54	=54	=54
[2eee-	8a	8c	4FF
.	8f	8A	.
.	8a	8c	4e-
.	8f	8A	.
8eee-]	8a	8c	4e-
24ddd	8f	8A	.
24ccc	.	.	.
24bb-	.	.	.
=55	=55	=55	=55
4aa	4cc	2f	4e-
4bb-	4b-	.	4d
4gg	4b-	4e-	4r
=56	=56	=56	=56
2b-	2f	8d	4F
.	.	8f	.
.	.	8d	4F
.	.	8f	.
8dd	4a	8e-	4F
8cc	.	8f	.
=57	=57	=57	=57
4b-	8b-	8d	4BB-
.	8f	8d	.
2r	8ff	8b-	4D
.	8dd	8f	.
.	8b-	8d	4G
.	8dd	8f	.
=58	=58	=58	=58
4cc	8g	8e-	4E-
.	8e-	8c	.
4..ee-	8cc	8g	4C
.	8b-	8e-	.
.	8a	8c	4F
.	8c	8A	.
16cc	.	.	.
=59	=59	=59	=59
4ff	8d	8B-	4D
.	8b-	8d	.
2r	8dd	8f	4BB-
.	8b-	8d	.
.	8d	8B-	4G
.	8b-	8d	.
=60	=60	=60	=60
4cc	8g	8G	4E-
.	8e-	8c	.
4..ee-	8g	8E-	4C
.	8e-	8c	.
.	8c	8A	4F
.	8A	8E-	.
16cc	.	.	.
=61a	=61a	=61a	=61a
4b-	8B-	8D	4BB-
.	8f	8d	.
4r	8a-	8f	4r
.	8g	8e-	.
4r	8f	8d	4r
.	8e-	8c	.
=61b	=61b	=61b	=61b
4b-	4B-	4D	4BB-
4r	4r	4r	4r
4r	4r	4r	4r
==	==	==	==
*-	*-	*-	*-
!!!RWG1: This file contains only pitch and duration data.
!!!RWG2: Transposing instruments are not transposed.
!!!RWG3: Spines may have incompatible meters.
!!!RWG4: Durations of rests and tied notes may be interpreted.
!!!RWG: Key is interpreted using the Humdrum key tool.
!!!OPT: Hunt
!!!AFT: stage1
!!!END: 1997/04/15
!!format changes:
!!content changes:
!!public access: complete
!!!KEY: 2169397555
!!!EMD: Converted from MuseData to Humdrum Dec 16, 2000, by Andreas Kornstaedt using muse2kern.
